X: 9
T: Inisheer
T: Inis O\'irr
O: trad. Ireland
S: Roaring Jelly collection
Z: 2013 John Chambers <jc:trillian.mit.edu>
M: 3/4
L: 1/8
K: G
zD2 |\
"G"B2 BA B<d | "Em"B2 BA B<d | "C"E3 B AB | "D7"D3 B AG |\
"G"B2 BA B<d | "Em"B2 BA B<d | "CM7"G3 B "D7"A{G}F | "G"G3 :|
|: A Bd |\
"C(Em)"e2 ef "D"ed | "Em"B2 BA Bd  | "Am"gf ed "Bm"B{c}d | "C"e3 d B<d |\
"Am"e3 d e<g | "G"B3 B AB/A/ | "CM7"G3 B "D7"A{G}F | "G"G3 :|

%%sep 1 1 500

